client/public/icons/weather/waterColor.svg

<svg xmlns="http://www.w3.org/2000/svg" xmlns:xlink="http://www.w3.org/1999/xlink" viewBox="0 0 100 125" version="1.1" x="0px" y="0px"><title>ic-15</title><desc>Created with Sketch.</desc><g stroke="none" stroke-width="1" fill="none" fill-rule="evenodd"><path d="M31.9425441,44.0106087 C36.9121325,31.1205851 45.0176108,21.0741228 50.0403499,15.6586593 C55.0502934,20.9894754 63.1045896,30.8873127 68.0535082,43.7665093 C68.7838379,45.6671382 69.4452686,47.6337133 70.0200833,49.6593446 L29.961205,49.9300194 C30.5399568,47.8984824 31.2053245,45.9220646 31.9425441,44.0106087 M78.796835,58.4587346 L90.5972698,58.3790086 C93.0441695,58.3642445 95.0146817,56.3691256 94.9999176,53.9232101 C94.9851535,51.4861531 93.0067672,49.5205623 90.572663,49.5205623 L90.5441191,49.5205623 L77.1481798,49.6111153 C76.6343899,47.5904053 76.040874,45.6257988 75.3814119,43.7172957 C67.4157001,20.6518702 49.9999947,6 49.9999947,6 C49.9999947,6 32.5281858,21.038689 24.5792067,44.0608066 C23.9167918,45.9791524 23.3203231,47.9526173 22.8065332,49.9782487 L9.40271967,50.0688017 C6.95581995,50.0835658 4.98629206,52.0777005 5.00007187,54.5246002 C5.00991459,56.1909724 5.94005145,57.6378519 7.30523645,58.3849142 C7.9351704,58.7303936 8.65959446,58.927248 9.42831074,58.927248 L9.45685462,58.927248 L21.1677206,58.847522 C20.9423224,60.7816161 20.8055086,62.7521283 20.7572793,64.7561057 C20.7444837,65.2610371 20.7179084,65.7600629 20.7179084,66.2689314 C20.7179084,81.8971992 34.3717269,94.566746 49.9999947,94.566746 C65.6282625,94.566746 79.2820811,81.8971992 79.2820811,66.2689314 C79.2820811,65.6271862 79.2525529,64.996268 79.2338517,64.3614127 C79.1747954,62.356451 79.0281389,60.3879074 78.796835,58.4587346" fill="#000000"/></g><text x="0" y="115" fill="#000000" font-size="5px" font-weight="bold" font-family="'Helvetica Neue', Helvetica, Arial-Unicode, Arial, Sans-serif">Created by Marek Polakovic</text><text x="0" y="120" fill="#000000" font-size="5px" font-weight="bold" font-family="'Helvetica Neue', Helvetica, Arial-Unicode, Arial, Sans-serif">from the Noun Project</text></svg>

<?xml version="1.0" encoding="UTF-8" standalone="no"?>
<svg
   xmlns:dc="http://purl.org/dc/elements/1.1/"
   xmlns:cc="http://creativecommons.org/ns#"
   xmlns:rdf="http://www.w3.org/1999/02/22-rdf-syntax-ns#"
   xmlns:svg="http://www.w3.org/2000/svg"
   xmlns="http://www.w3.org/2000/svg"
   xmlns:sodipodi="http://sodipodi.sourceforge.net/DTD/sodipodi-0.dtd"
   xmlns:inkscape="http://www.inkscape.org/namespaces/inkscape"
   viewBox="0 0 90 88.56675"
   version="1.1"
   x="0px"
   y="0px"
   id="svg14"
   sodipodi:docname="waterColor.svg"
   width="90"
   height="88.56675"
   inkscape:version="0.92.3 (2405546, 2018-03-11)">
  <metadata
     id="metadata20">
    <rdf:RDF>
      <cc:Work
         rdf:about="">
        <dc:format>image/svg+xml</dc:format>
        <dc:type
           rdf:resource="http://purl.org/dc/dcmitype/StillImage" />
        <dc:title>ic-15</dc:title>
      </cc:Work>
    </rdf:RDF>
  </metadata>
  <defs
     id="defs18" />
  <sodipodi:namedview
     pagecolor="#ffffff"
     bordercolor="#666666"
     borderopacity="1"
     objecttolerance="10"
     gridtolerance="10"
     guidetolerance="10"
     inkscape:pageopacity="0"
     inkscape:pageshadow="2"
     inkscape:window-width="3000"
     inkscape:window-height="1955"
     id="namedview16"
     showgrid="false"
     fit-margin-top="0"
     fit-margin-left="0"
     fit-margin-right="0"
     fit-margin-bottom="0"
     inkscape:zoom="1.888"
     inkscape:cx="-82.118644"
     inkscape:cy="32.066746"
     inkscape:window-x="-13"
     inkscape:window-y="-13"
     inkscape:window-maximized="1"
     inkscape:current-layer="svg14" />
  <title
     id="title2">ic-15</title>
  <desc
     id="desc4">Created with Sketch.</desc>
  <g
     id="g8"
     style="fill:none;fill-rule:evenodd;stroke:none;stroke-width:1"
     transform="translate(-5,-6)">
    <path
       d="m 31.942544,44.010609 c 4.969588,-12.890024 13.075067,-22.936486 18.097806,-28.35195 5.009943,5.330816 13.06424,15.228654 18.013158,28.10785 0.73033,1.900629 1.391761,3.867204 1.966575,5.892836 l -40.058878,0.270674 c 0.578752,-2.031537 1.244119,-4.007954 1.981339,-5.91941 m 46.854291,14.448126 11.800435,-0.07973 c 2.446899,-0.01477 4.417412,-2.009883 4.402648,-4.455799 -0.01476,-2.437057 -1.993151,-4.402648 -4.427255,-4.402648 h -0.02854 L 77.14818,49.611115 C 76.63439,47.590405 76.040874,45.625799 75.381412,43.717296 67.4157,20.65187 49.999995,6 49.999995,6 c 0,0 -17.471809,15.038689 -25.420788,38.060807 -0.662415,1.918345 -1.258884,3.89181 -1.772674,5.917442 L 9.4027197,50.068802 C 6.95582,50.083566 4.9862921,52.0777 5.0000719,54.5246 c 0.00984,1.666372 0.9399796,3.113252 2.3051645,3.860314 0.629934,0.34548 1.3543581,0.542334 2.1230743,0.542334 h 0.028544 l 11.7108663,-0.07973 c -0.225399,1.934094 -0.362212,3.904606 -0.410442,5.908584 -0.0128,0.504931 -0.03937,1.003957 -0.03937,1.512825 0,15.628268 13.653819,28.297815 29.282087,28.297815 15.628268,0 29.282086,-12.669547 29.282086,-28.297815 0,-0.641745 -0.02953,-1.272663 -0.04823,-1.907518 -0.05906,-2.004962 -0.205713,-3.973506 -0.437017,-5.902678"
       id="path6"
       inkscape:connector-curvature="0"
       style="fill:#000000" />
  </g>
</svg>
